src/components/00-materials/images-raw/Broke Robot.svg

<svg width="96" height="96" viewBox="0 0 96 96" fill="none" xmlns="http://www.w3.org/2000/svg">
<path d="M62.9073 65.7409H29.296C26.8978 65.7409 24.6246 64.354 24.2124 62.5691L17.8174 35.1146C17.0929 32.007 19.2163 29.3489 22.5762 29.3489H69.6271C72.987 29.3489 75.1103 31.9942 74.3859 35.1017L67.9908 62.5691C67.5787 64.354 65.3054 65.7409 62.9073 65.7409V65.7409ZM82.1798 89.8309C81.3852 90.1396 80.5194 90.1991 79.6919 90.002C78.8643 89.805 78.1122 89.3601 77.5305 88.7238C76.9487 88.0874 76.5635 87.288 76.4235 86.4267C76.2835 85.5653 76.395 84.6806 76.7439 83.8844C77.0927 83.0881 77.6634 82.416 78.3836 81.9531C79.1039 81.4901 79.9414 81.257 80.7905 81.2832C81.6395 81.3094 82.462 81.5938 83.1539 82.1004C83.8458 82.607 84.3761 83.3131 84.6779 84.1295C84.8785 84.6724 84.9731 85.2507 84.9561 85.8313C84.9392 86.4118 84.811 86.9833 84.579 87.5128C84.347 88.0424 84.0156 88.5198 83.6039 88.9175C83.1922 89.3153 82.7083 89.6257 82.1798 89.8309ZM84.3281 88.3285L91.0854 82.871L84.3281 88.3285ZM8.43718 43.4742C7.83541 44.0916 7.42534 44.8787 7.25885 45.7358C7.09236 46.593 7.17695 47.4816 7.5019 48.2893C7.82685 49.097 8.37755 49.7874 9.08432 50.2732C9.79109 50.759 10.6221 51.0183 11.4723 51.0183C12.3225 51.0183 13.1535 50.759 13.8603 50.2732C14.5671 49.7874 15.1178 49.097 15.4427 48.2893C15.7677 47.4816 15.8523 46.593 15.6858 45.7358C15.5193 44.8787 15.1092 44.0916 14.5075 43.4742C13.7019 42.6477 12.6104 42.1835 11.4723 42.1835C10.3343 42.1835 9.24271 42.6477 8.43718 43.4742V43.4742ZM7.60033 44.6428L4.91492 53.9398L7.60033 44.6428ZM10.6604 42.0231L18.2545 37.9011L10.6604 42.0231ZM40.2374 65.7409H51.9658V75.2305H40.2374V65.7409ZM36.7776 86.8389C37.96 86.8269 39.1338 87.0447 40.2374 87.481V71.2754H33.3178V87.481C34.4214 87.0447 35.5953 86.8269 36.7776 86.8389V86.8389Z" stroke="#00008F" stroke-width="2" stroke-linecap="round" stroke-linejoin="round"/>
<path d="M36.7777 86.8383C33.2929 86.8383 30.4451 88.5847 30.2453 90.8062V91.0502H43.3101C43.3101 88.726 40.3874 86.8383 36.7777 86.8383ZM55.4257 86.8383C56.608 86.8262 57.7819 87.0441 58.8855 87.4804V71.2748H51.9659V87.4804C53.0698 87.0453 54.2435 86.8275 55.4257 86.8383V86.8383Z" stroke="#00008F" stroke-width="2" stroke-linecap="round" stroke-linejoin="round"/>
<path d="M23.126 29.3485C23.126 16.3147 33.418 4.9502 46.1331 4.9502C58.8482 4.9502 69.0777 16.3147 69.0777 29.3485M55.4259 86.8386C51.9411 86.8386 49.1058 88.585 48.9059 90.8065C48.8997 90.8877 48.8997 90.9693 48.9059 91.0505H61.9708C61.9708 88.7262 59.0355 86.8386 55.4259 86.8386Z" stroke="#00008F" stroke-width="2" stroke-linecap="round" stroke-linejoin="round"/>
<path d="M34.5667 15.9679H57.6488V22.2986H34.5667V15.9679Z" stroke="#00008F" stroke-width="2" stroke-linecap="round" stroke-linejoin="round"/>
</svg>

<svg width="96" height="96" viewBox="0 0 96 96" fill="none" xmlns="http://www.w3.org/2000/svg"><path d="M62.907 65.74H29.296c-2.398 0-4.671-1.386-5.084-3.17l-6.395-27.455c-.724-3.108 1.4-5.766 4.76-5.766h47.05c3.36 0 5.483 2.645 4.759 5.753L67.99 62.569c-.412 1.785-2.686 3.172-5.084 3.172v0zM82.18 89.83a4.185 4.185 0 01-2.488.172 4.27 4.27 0 01-2.161-1.278 4.466 4.466 0 01-1.108-2.297 4.53 4.53 0 01.32-2.543 4.382 4.382 0 011.64-1.93 4.208 4.208 0 012.407-.67 4.22 4.22 0 012.364.816 4.404 4.404 0 011.524 2.03 4.53 4.53 0 01-.099 3.383 4.416 4.416 0 01-.975 1.404 4.28 4.28 0 01-1.424.914zm2.148-1.501l6.757-5.458-6.757 5.458zM8.438 43.474a4.457 4.457 0 00-1.18 2.262 4.533 4.533 0 00.244 2.553 4.394 4.394 0 001.582 1.984 4.213 4.213 0 002.388.745c.85 0 1.681-.259 2.388-.745a4.393 4.393 0 001.583-1.984c.325-.807.41-1.696.243-2.553a4.457 4.457 0 00-1.178-2.262 4.238 4.238 0 00-3.036-1.29c-1.138 0-2.23.464-3.035 1.29v0zM7.6 44.643L4.915 53.94 7.6 44.643zm3.06-2.62l7.595-4.122-7.595 4.122zm29.577 23.718h11.729v9.49H40.237v-9.49zm-3.46 21.098a9.154 9.154 0 013.46.642V71.275h-6.92v16.206a9.154 9.154 0 013.46-.642v0z" stroke="#00008F" stroke-width="2" stroke-linecap="round" stroke-linejoin="round"/><path d="M36.778 86.838c-3.485 0-6.333 1.747-6.533 3.968v.244H43.31c0-2.324-2.923-4.212-6.532-4.212zm18.648 0a9.152 9.152 0 013.46.642V71.275h-6.92V87.48a9.202 9.202 0 013.46-.642v0z" stroke="#00008F" stroke-width="2" stroke-linecap="round" stroke-linejoin="round"/><path d="M23.126 29.349c0-13.034 10.292-24.399 23.007-24.399 12.715 0 22.945 11.365 22.945 24.399m-13.652 57.49c-3.485 0-6.32 1.746-6.52 3.968a1.603 1.603 0 000 .243H61.97c0-2.324-2.935-4.211-6.545-4.211z" stroke="#00008F" stroke-width="2" stroke-linecap="round" stroke-linejoin="round"/><path d="M34.567 15.968h23.082v6.33H34.567v-6.33z" stroke="#00008F" stroke-width="2" stroke-linecap="round" stroke-linejoin="round"/></svg>
